[A]
T3@5V15,3
L3O3AAAAAAAAO4F+F+F+F+F+F+F+F+FFFFFFFFAAAAAAAA
L3O5EO4AAAAAAA
L3O3AAAAAAAAO4F+F+F+F+F+F+F+F+FFFFFFFFAAAAAAAA
L3O3AO4F+5A5F+O3AO4F+5A5F+O3AO4F+5A5F+
L3O5EO4AAAAAAA
[B]
T3@5V15,3
L3O3EEEEEEEEAAAAAAAAG+G+G+G+G+G+G+G+O4C+C+C+C+C+C+C+C+
L3O4AAAAAAAA
L3O3EEEEEEEEAAAAAAAAG+G+G+G+G+G+G+G+O4C+C+C+C+C+C+C+C+
L3O3EA5O4C5O3AO3EA5O4C5O3AO3EA5O4C5O3A
L3O4AAAAAAAA
[C]
T3@2V15,3
L6O3CC7R3CC7R3O2BB7R3BB7R3
L3O3EO2A8R
L6O3CC7R3CC7R3O2BB7R3BB7R3
L3O2AA5A5AO2AA5A5AO2AA5A5A
L3O3EO2A8R
