[A]
T3@1V15,5
L5O4FAG+B3F6AG+B3F6AG+B3F6AG+B
L5O4FAG+B3F6AG+B3F6AG+B3F6AG+B3F3
L5O4G-B-A-B-3G-6B-A-B-G-3B-3B-3B-A-3B-G-3G-A-A-3G-
L5O4A3G+A3G+A3G+A3G+A3G+A3G+A3G+A3G+A3G+A3G+A3G+3

[B]
T3@1V15,5
L5O4CE-DF+3C6E-DF+3C6E-DF+3C6E-DF+
L5O4CE-DF+3C6E-DF+3C6E-DF+3C6E-DF+3C3
L5O4D-D-D-D-3C6D-D-CD-3D-3D-3D-D-3D-C3CCC3C
L5O4F3G+F3G+F3G+F3G+F3G+F3G+F3G+F3G+F3G+F3G+F3G+3

[C]
T3@2V15,8
L9O3F8R3FFF8R3G-5
L9O3D8R3DDDR3
L9O3E-8R3E-R3E-E-
L9O3EO2D+O3F+G
