[A]
T5@2V15,3L1
O4D+EF+BF+ED+O3B
O4D+EF+BF+ED+O3B
O4D+EF+BF+ED+O3B
O4D+EF+BF+ED+O3B
O4D+EF+BF+ED+O3B
O4D+EF+BF+ED+O3B
O4D+EF+BF+ED+O3B
O4DEF+BF+EDO3B
O4DEF+BF+EDO3B
O4DEF+BF+EDO3B
O4DEF+BF+EDO3B
O4DEF+BF+EDO3B
O4DEF+BF+EDO3B
O4DEF+BF+EDO3B

[B]
T5@2V15,3L1
O2BBBO3F+F+F+BB
O3BO4F+F+F+O3BB
O4F+F+O2BBBO3F+F+F+BB
O3F+F+O2BBAAAO3E
O3EEAAAO4EEE
O3AAEEO2AAAO3E
O3EEAAEEO2AA
O2GGGO3DDDGG
O3GO4DDDO3GGDD
O2GGGO3DDDGG
O3DDO2GGF+F+F+O3C+
O3C+C+F+F+F+O4C+C+C+
O3F+F+C+C+O2F+F+F+O3C+
O3C+C+F+F+C+C+O2F+F+

